src/svg/plane.svg

<svg version="1.2" baseProfile="tiny" xmlns="http://www.w3.org/2000/svg" width="24" height="24" viewBox="0 0 24 24"><path d="M19.996 13.507l-5.996-3.426v-5.956c0-.827-.673-1.5-1.5-1.5s-1.5.673-1.5 1.5v5.956l-5.996 3.426c-.439.251-.622.79-.426 1.256.197.466.711.713 1.196.573l5.226-1.492v4.451l-1.625 1.3c-.387.31-.488.856-.239 1.284s.776.608 1.235.425l2.129-.852 2.129.852c.121.048.247.071.371.071.347 0 .681-.181.864-.497.249-.428.147-.975-.239-1.284l-1.625-1.3v-4.451l5.226 1.493.274.039c.394 0 .762-.233.922-.612.196-.466.014-1.005-.426-1.256zm-7.496-9.132c-.276 0-.5-.224-.5-.5s.224-.5.5-.5.5.224.5.5-.224.5-.5.5z"/></svg>

<?xml version="1.0" encoding="iso-8859-1"?>
<!-- Generator: Adobe Illustrator 16.2.1, SVG Export Plug-In . SVG Version: 6.00 Build 0)  -->
<svg version="1.2" baseProfile="tiny" id="Layer_1" xmlns="http://www.w3.org/2000/svg" xmlns:xlink="http://www.w3.org/1999/xlink"
	 x="0px" y="0px" width="24px" height="24px" viewBox="0 0 24 24" xml:space="preserve">
<path d="M19.996,13.507L14,10.081V4.125c0-0.827-0.673-1.5-1.5-1.5S11,3.298,11,4.125v5.956l-5.996,3.426
	c-0.439,0.251-0.622,0.79-0.426,1.256c0.197,0.466,0.711,0.713,1.196,0.573L11,13.844v4.451l-1.625,1.3
	c-0.387,0.31-0.488,0.856-0.239,1.284s0.776,0.608,1.235,0.425l2.129-0.852l2.129,0.852c0.121,0.048,0.247,0.071,0.371,0.071
	c0.347,0,0.681-0.181,0.864-0.497c0.249-0.428,0.147-0.975-0.239-1.284L14,18.294v-4.451l5.226,1.493
	c0.091,0.026,0.184,0.039,0.274,0.039c0.394,0,0.762-0.233,0.922-0.612C20.618,14.297,20.436,13.758,19.996,13.507z M12.5,4.375
	c-0.276,0-0.5-0.224-0.5-0.5s0.224-0.5,0.5-0.5s0.5,0.224,0.5,0.5S12.776,4.375,12.5,4.375z"/>
</svg>
